dist/icons/svgs/file-download-outline.svg

<svg xmlns="http://www.w3.org/2000/svg" width="24" height="24" fill="currentcolor" class="icon-file-download-outline" viewBox="0 0 24 24">
  <path d="M6.875 19.5C6.875 19.8516 7.14844 20.125 7.5 20.125H17.5C17.8125 20.125 18.125 19.8516 18.125 19.5V8.25H15C14.2969 8.25 13.75 7.70312 13.75 7V3.875H7.5C7.14844 3.875 6.875 4.1875 6.875 4.5V19.5ZM7.5 2H13.9453C14.6094 2 15.2344 2.27344 15.7031 2.74219L19.2578 6.29688C19.7266 6.76562 20 7.39062 20 8.05469V19.5C20 20.9062 18.8672 22 17.5 22H7.5C6.09375 22 5 20.9062 5 19.5V4.5C5 3.13281 6.09375 2 7.5 2ZM13.4375 11.0625V15.0859L14.6484 13.875C15 13.4844 15.5859 13.4844 15.9766 13.875C16.3281 14.2266 16.3281 14.8125 15.9766 15.1641L13.1641 17.9766C12.7734 18.3672 12.1875 18.3672 11.8359 17.9766L9.02344 15.1641C8.63281 14.8125 8.63281 14.2266 9.02344 13.875C9.375 13.4844 9.96094 13.4844 10.3516 13.875L11.5625 15.0859V11.0625C11.5625 10.5547 11.9531 10.125 12.5 10.125C13.0078 10.125 13.4375 10.5547 13.4375 11.0625Z"/>
</svg>

<svg xmlns="http://www.w3.org/2000/svg" width="24" height="24" fill="currentColor" class="icon-file-download-outline" viewBox="0 0 24 24">
  <path d="M6.875 19.5c0 .352.273.625.625.625h10a.64.64 0 0 0 .625-.625V8.25H15c-.703 0-1.25-.547-1.25-1.25V3.875H7.5a.64.64 0 0 0-.625.625zM7.5 2h6.445c.664 0 1.29.273 1.758.742l3.555 3.555c.469.469.742 1.094.742 1.758V19.5c0 1.406-1.133 2.5-2.5 2.5h-10A2.47 2.47 0 0 1 5 19.5v-15C5 3.133 6.094 2 7.5 2m5.938 9.063v4.023l1.21-1.211c.352-.39.938-.39 1.329 0a.92.92 0 0 1 0 1.29l-2.813 2.812c-.39.39-.976.39-1.328 0l-2.813-2.813a.856.856 0 0 1 0-1.289c.352-.39.938-.39 1.329 0l1.21 1.21v-4.023c0-.507.391-.937.938-.937a.95.95 0 0 1 .938.938"/>
</svg>
